X:803
T:When Laura Smiles
C:Philip Rosseter, 1601
%%MIDI beat 100 95 80
S:Colin Hume's website,  colinhume.com  - chords can also be printed below the stave.
Q:1/4=120
M:3/4
L:1/4
K:G
P:A
"G"dB"C"e | "G"d/c/B/A/ G | "Am"A/B/cB | "D"A/G/F/E/ D | "Em"G"D"AA | "G"G3 :|
P:B
"F"A2"C"c | "Dm"B2A | "E7"^G2 "Am"A- | A "E7"BB | "Am"c2A | "G"B2"A7/E"^c | "D"d2d |
"F"A2"G7/D"B | "C"c2c | "Em"G2"D"A | "G"B3 | "Am"A/G/ "D7"AA | "G"G3 |]

